www/img/mcc-icons/football.svg

<?xml version="1.0" encoding="UTF-8" standalone="no"?>
<svg width="45px" height="45px" viewBox="0 0 45 45" version="1.1" xmlns="http://www.w3.org/2000/svg" xmlns:xlink="http://www.w3.org/1999/xlink">
    <!-- Generator: Sketch 3.7.2 (28276) - http://www.bohemiancoding.com/sketch -->
    <title>football</title>
    <desc>Created with Sketch.</desc>
    <defs></defs>
    <g id="Page-1" stroke="none" stroke-width="1" fill="none" fill-rule="evenodd">
        <g id="-Transaction-icons" transform="translate(-140.000000, -1335.000000)" stroke="#9B9BAB">
            <g id="football" transform="translate(140.000000, 1335.000000)">
                <g id="Group" transform="translate(0.500000, 0.500000)">
                    <path d="M22,32 L0,32 L0,42 C12.166667,42 12,26.333334 12,20" id="Shape"></path>
                    <circle id="Oval" cx="30" cy="36" r="2"></circle>
                    <path d="M30.0000076,44 C34.4182816,44 38,40.4182816 38,36.0000076 L38,34 C38,30 44,27.75 44,24 L44,20 C42.9881592,8.7883301 33.4750977,0 22,0 C10.5249023,0 1.112793,8.7883301 0.1009521,20 L18,20 C20.2091389,20 22,21.7908611 22,24 L22,36.0000076 C22,40.4182816 25.5817184,44 29.9999924,44 L30.0000076,44 L30.0000076,44 Z" id="Shape"></path>
                </g>
            </g>
        </g>
    </g>
</svg>

<svg width="45" height="45" viewBox="0 0 45 45" xmlns="http://www.w3.org/2000/svg"><g class="nc-icon-wrapper" fill="#444444"><title>football</title><g transform="translate(-140 -1335) translate(140 1335) translate(.5 .5)" stroke="#444444" stroke-width="1" fill="none" fill-rule="evenodd"><path d="M22 32H0v10c12.167 0 12-15.667 12-22"></path><circle cx="30" cy="36" r="2"></circle><path d="M30 44a8 8 0 0 0 8-8v-2c0-4 6-6.25 6-10v-4C42.988 8.788 33.475 0 22 0S1.113 8.788.101 20H18a4 4 0 0 1 4 4v12a8 8 0 0 0 8 8z"></path></g></g></svg>
